X: 256
T:Miss Ross's Reel
B:William Marshall A Collection Of Strathspey Reels (1781)
C:William Marshall
L:1/8
M:C|
O:Scotland
R:Reel
Z:Clark Bernst + Richard Robinson
%%Page:11 - 3
F:http://richardrobinson.tunebook.org.uk/tune/4099
%%TBL:{"version":1,"type":"tune","id":"4099"}
K:F
%%staves {1 2}
V:1
A | \
F/F/F (fd) cfc(A | B)d!trill!cA BGGA | F/F/F (fd) cfc(A | B)d!trill!cB AFF :| \
e | \
(!trill!fg).a.f cfa(f | d).fcA BGGe | 
                         (!trill!fga).f bga(f | d).f!trill!cB AFFe | \
(!trill!fga).f bgaf | cfaf bg-g.a | fcAf dfc(A | B)d!trill!cB AFF |]
V:2 middle=d clef=bass
L:1/4
z/ | ffff | bagg | ffff | bc'ff/ :| \
z/ | ffaf | bagg | ffgf | bc'ff | ffgf | afgg | afba | bc'ff/ |]

